packages/symbols/svgs/outline/link-outline.svg

<svg width="24" height="24" viewBox="0 0 24 24" fill="none" xmlns="http://www.w3.org/2000/svg">
<path fill-rule="evenodd" clip-rule="evenodd" d="M12.6929 9.8929C13.0834 9.50238 13.7166 9.50238 14.1071 9.8929C16.4976 12.2834 16.4976 16.0166 14.1071 18.4071L11.3071 21.2071C8.91658 23.5976 5.18342 23.5976 2.79289 21.2071C0.402369 18.8166 0.402369 15.0834 2.79289 12.6929L2.80747 12.6786L5.30747 10.2786C5.70588 9.89614 6.33891 9.90906 6.72139 10.3075C7.10386 10.7059 7.09094 11.3389 6.69253 11.7214L4.20027 14.114C2.59763 15.7236 2.59991 18.1857 4.20711 19.7929C5.81658 21.4024 8.28342 21.4024 9.89289 19.7929L12.6929 16.9929C14.3024 15.3834 14.3024 12.9166 12.6929 11.3071C12.3024 10.9166 12.3024 10.2834 12.6929 9.8929Z" fill="black"/>
<path fill-rule="evenodd" clip-rule="evenodd" d="M19.7929 4.20711C18.1834 2.59763 15.7166 2.59763 14.1071 4.20711L11.3071 7.00711C9.69761 8.61658 9.69761 11.0834 11.3071 12.6929C11.6976 13.0834 11.6976 13.7166 11.3071 14.1071C10.9166 14.4976 10.2834 14.4976 9.89287 14.1071C7.50234 11.7166 7.50234 7.98342 9.89287 5.59289L12.6929 2.79289C15.0834 0.402369 18.8166 0.402369 21.2071 2.79289C23.5976 5.18342 23.5976 8.91658 21.2071 11.3071L21.1925 11.3214L18.6925 13.7214C18.2941 14.1039 17.6611 14.0909 17.2786 13.6925C16.8961 13.2941 16.909 12.6611 17.3074 12.2786L19.7997 9.88603C21.4023 8.27641 21.4001 5.8143 19.7929 4.20711Z" fill="black"/>
</svg>

<svg width="24" height="24" viewBox="0 0 24 24" xmlns="http://www.w3.org/2000/svg"><path fill-rule="evenodd" clip-rule="evenodd" d="M12.693 9.893a1 1 0 0 1 1.414 0c2.39 2.39 2.39 6.124 0 8.514l-2.8 2.8c-2.39 2.39-6.124 2.39-8.514 0-2.39-2.39-2.39-6.124 0-8.514l.014-.014 2.5-2.4a1 1 0 0 1 1.386 1.442L4.2 14.114c-1.602 1.61-1.6 4.072.007 5.679 1.61 1.61 4.076 1.61 5.686 0l2.8-2.8c1.61-1.61 1.61-4.076 0-5.686a1 1 0 0 1 0-1.414Z"/><path fill-rule="evenodd" clip-rule="evenodd" d="M19.793 4.207c-1.61-1.61-4.076-1.61-5.686 0l-2.8 2.8c-1.61 1.61-1.61 4.076 0 5.686a1 1 0 0 1-1.414 1.414c-2.39-2.39-2.39-6.124 0-8.514l2.8-2.8c2.39-2.39 6.124-2.39 8.514 0 2.39 2.39 2.39 6.124 0 8.514l-.015.014-2.5 2.4a1 1 0 0 1-1.385-1.442L19.8 9.886c1.602-1.61 1.6-4.072-.007-5.679Z"/></svg>
